X:1
T:Title
%%score { 1 | 2 }
L:1/8
M:4/4
K:Ab
V:1 treble nm="Grand Piano"
V:2 bass 
V:1
 z4 z2[Q:1/4=96] [A,C][B,D] | [CE][Ec][Ec][Fd] [Ec]2 [EB][EA] |[M:3/4] [EG]F FF F2 | %3
[M:1/4] [EG][EA] |[M:4/4] BBBc BAGF |[M:3/4] Ec cd c2 |[M:1/4] CD | %7
[M:4/4] [CE][Ec][Ec][Fd] [Ec]2 Bc | [Fe][Fd][Fd][Fd] [FA]2 [FB]2 | c<c c>d cBFG |[M:3/4] [CA]6 | %11
[M:1/4] [CA]2 |[M:4/4] [Fd]<[Fd] [Fd]>[Fd] [FA]2 [FB]2 | [Ec]<[Ec] [Ec]>[Ec] [CA]2 [Ec]2 | %14
 [Ec]>[EB] [EB][EB] [=DB][DF][EG]A |[M:3/4] [GB]2 [Gd][CAc] [DGB]2 | %16
[M:1/4][K:bass] [E,A,C][E,B,D] |[M:4/4][K:treble] [CE][Ec][Ec][Fd] [Ec]2 Bc | %18
 [Fe][Fd][Fd][Fd] [FA]2 [FB]2 | c<c c>d cBFG |[M:7/4] [CA]6 z2 z2 z4 |] %21
V:2
 z4 z2 [A,,E,][A,,E,] | [A,,A,][A,,A,][A,,A,][A,,A,] [A,,A,]2 [B,,G,][C,A,] | %2
[M:3/4] [D,A,][D,A,D] [D,A,D][D,A,D] [D,A,D]2 |[M:1/4] [D,B,][C,A,] | %4
[M:4/4] [E,G,E][E,G,E][E,G,E][E,A,E] [E,G,E][E,CE][E,B,E][E,G,D] | %5
[M:3/4][K:treble] [A,C][A,E] [A,E][A,F] [A,E]2 |[M:1/4][K:bass] [C,E,A,][B,,E,B,] | %7
[M:4/4] [A,,A,][A,,A,][A,,A,][A,,A,] [A,,A,]2 [E,G,E][A,_G] | %8
 [D,A,][D,A,][D,A,][D,A,] [D,D]2 [D,A,]2 | %9
 [E,A,E]<[E,A,E] [E,A,E]>[E,B,E] [E,A,E][E,G,D][E,B,D][E,B,D] |[M:3/4] [A,,A,]6 |[M:1/4] [A,,A,]2 | %12
[M:4/4] [D,A,]<[D,A,] [D,A,]>[D,A,] [D,D]2 [D,A,]2 | %13
 [A,,A,]<[A,,A,] [A,,A,]>[A,,A,] [A,,E,]2 [A,,A,]2 | %14
 [A,,A,]>[B,,G,] [B,,G,][B,,G,] [B,,F,][B,,B,][B,,B,][B,F] |[M:3/4] [E,B,]2 [E,B,]E, E,D, | %16
[M:1/4] C,B,, |[M:4/4] [A,,A,][A,,A,][A,,A,][A,,A,] [A,,A,]2 [E,G,E][A,_G] | %18
 [D,A,][D,A,][D,A,][D,A,] [D,D]2 [D,A,]2 | %19
 [E,A,E]<[E,A,E] [E,A,E]>[E,B,E] [E,A,E][E,G,D][E,B,D][E,B,D] |[M:7/4] [A,,A,]6 z2 z2 z4 |] %21

